X:1
T:The Mystic Veil
M:4/4
L:1/8
K:Eb
 G3/2 F/2 EF GB ed| c4 e4| B3/2 A/2 GA Bc BG| F6 A2| G3/2 F/2 EF GB ed|\
 c4 e4| d3/2 c/2 BA G2 F2| E6 z2| G3/2 F/2 EF GB ed| c4 e4| B3/2 A/2 GA Bc BG|\
 F6 A2| G3/2 F/2 EF GB ed| c4 e4| d3/2 c/2 BA G2 F2| E6G-A| B2 B2 B2 e2|\
 c2 c2 c2 e2| B2 B2 =AB cA| B6 A2| G3/2 F/2 EF GB ed| c4 e4| d3/2 c/2 BA G2 F2|\
 E6 z2|||
